X: 105
P: No. CV.
M: 6/8
L: 1/8
K: D
V: 1
d/e/ |\
fdB AGF | Eee e2d/e/ |\
fdB AFA | Bdd d2d/e/ |\
fdB AGF | Eee e2d/e/ |\
fdB AFA | Bdd d2 :|
|: f/e/ |\
dfa dfa | dfa a>gf/e/ |\
dfa dfa | bee e2f/e/ |\
dfa dfa | dd'b {b}Ha>ba/g/ |\
fdB AGF |
Eee e2d/e/ |\
fdB AFA | Bdd d2F |\
fdB AFA | Bdd d2 :|
V: 2 clef=bass middle=d
z |\
d2z d'2z | c'2z a2z | d'2z a2z | zdd d2z | d2z d'2z | c'2z a2z | d'2z a2z |
zdd d2 :| |: z | d6- | d6- | d6 | g2^g a2z | d6 | Hd6 | d2z d'2z |
c'2z a2z | d'2z a2z | zdd d2z | cea dfa | A2d a2z | d'2z a2z | zdd d2 :|

